images/icon1.svg

<svg width="92" height="92" viewBox="0 0 92 92" fill="none" xmlns="http://www.w3.org/2000/svg">
<circle cx="46" cy="46" r="46" fill="#E9E9EC"/>
<path d="M40.0476 21C36.4688 28.7248 27.8657 22.303 23.381 26.9524C24.4254 18.9551 31.4047 25.3993 40.0476 21ZM29.3333 28.1429V42.7262L37.6667 47.1905V38.8571L54.3333 47.1905V38.8571L71 47.1905V71H21V28.1429H29.3333ZM64.4524 54.9286H56.119V62.0714H64.4524V54.9286ZM50.1667 54.9286H41.8333V62.0714H50.1667V54.9286ZM35.881 54.9286H27.5476V62.0714H35.881V54.9286Z" fill="#0B7572"/>
</svg>

<svg width="92" height="92" fill="none" xmlns="http://www.w3.org/2000/svg"><circle cx="46" cy="46" r="46" fill="#E9E9EC"/><path d="M40.048 21c-3.58 7.725-12.182 1.303-16.667 5.952C24.425 18.955 31.405 25.4 40.048 21Zm-10.715 7.143v14.583l8.334 4.465v-8.334l16.666 8.334v-8.334L71 47.191V71H21V28.143h8.333Zm35.12 26.786h-8.334v7.142h8.333V54.93Zm-14.286 0h-8.334v7.142h8.334V54.93Zm-14.286 0h-8.333v7.142h8.333V54.93Z" fill="#0B7572"/></svg>
